X: 15506
T: Glens Of Mayo, The
R: jig
M: 6/8
K: Gmajor
dBG AGE|GAB d2d|dBG BAG|~B3 edg|
dBG AGE|GAB d2e|dBG AGE|1 GAG GBc:|2 GAG ~G3||
|:BBB Beg|fed e2g|fed dBA|ABd ~d3|
dBG AGE|GAB dBe|dBG AGE|GAG ~G3:|

